X: 18
T:Ton double plin (Em)
R:das plin
C:Tony Upton, 7/26/01
M:4/4
L:1/8
Q:1/4=160
K:Em
"G"GE/E/"Em"ED "C"EDEF|"G"GE/E/ED "Em"E2"C".E2|
"G"GE/E/"Em"ED EDEF|"C"GE/E/"Em"ED "C"E2E>F||
"G"GE"D"DE "Bm"F/G/AB2|"Am"A/B/cde "Bm"dB"D"B2|
"Am"A/B/cBA "G"G2"C"GA|"Bm"BAGF "Em"E2"C"E>F|
"G"GE"D"DE "Bm"F/G/AB2|"Am"A/B/cde "D"dB"Bm"B2|
"Am"A/B/cBA G2"C"GA|"Bm"BAGF "Em"E2"C".E2||
